X:1
T:Rosbif Waltz
M:3/4
L:1/8
Q:1/4=100
K:Bb
z4GA|:B2GA BG|B2GA BG|A2FG AF|G2G4|B2GA BG|
B2GA BG|AG FG AF|d2d4|d2Bc dB|c2c4|B2GA BG|
A2A4|B2GA BG|BA GA BG|AG FG AF|[1G2G2GA:|[2G2G4
|:d2e2d2|B4B2|d2e2d2|c4c2|c2cA FA|c2cA FA|c4B2|G6:|
|:B3A B2|c4c2|d2f2e2|d3c B2|g3f e2|d3c B2|[1c4c2|d6:|[2c4B2|G6|]
